X: 6
T: THE DONEGAL JIG - Tune 1
C: Arthur Darley
R: jig
Z: 2006 John Chambers <jc@trillian.mit.edu>
B: "Rinnci na h-\'Eireann" Elizabeth Burchenal, ed. G.Schirmer (1925) p.126
M: 6/8
L: 1/8
K: G
d/c/ \
| "G"BAG DGA | "G"Bcd dBG | "D7"cBc AFD | "D7"ABc cBA \
| "G"BAG DGA | "G"B/c/dB "C"efg | "G"dcB "D7"ABc | "G"BGG G2 :|
|: B \
| "D7"AFD DEF | "G"GBc d2B | "D7"c/B/Ac "G"B/A/GB | "D7"AGF FED \
| "D7"AFD DEF | "G"GBd "C"g2e | "G"dcB "D7"ABc | "G"BGG G2 :|
|: d \
| "G"g2d BGG | "G"Bcd dBG | "D7"c2B AFD | "D7"cBA def \
| "G"g2d "C"efg | "D7"a/g/fe "G"d2e | "D7"dcB ABc | "G"BGG G2 :|
|: A \
| "D7"D2A cBA | "D7"DEF "G"GAB | "D7"D2A cBA | "D7"DEF "G"G2A \
| "D7"D2A "G"Bcd | "Am"efg age | "D7"dcB ABc | "G"BGG G2 :|

%%sep 2 1 500

